X:1
T: The Fijiyama Hornpipe
C:
R:Reel
Q: 232
K:Bb
M:4/4
L:1/8
|:dc|BF DF Bd fd|ec Ac Bd fd|ba gf ed cB|((3cdc) ((3BAG) ((3FGF) ((3EDC)|
B,B AB dB AB|Cc =Bc ec Ac|Bb ab ge cA|B2 b2 B2:|
|:dc|Bd fd bf dB|fb ab fd BF|DB, FD BF dB|((3cdc) ((3ABA) ((3FGE) ((3DEC)|
B,B AB dB AB|Cc =Bc ec Ac|Bb ab ge cA|B2 b2 B2:|
